logos/amplitude-icon.svg

<?xml version="1.0" encoding="UTF-8"?>
<svg width="256px" height="256px" viewBox="0 0 256 256" version="1.1" xmlns="http://www.w3.org/2000/svg" xmlns:xlink="http://www.w3.org/1999/xlink" preserveAspectRatio="xMidYMid">
		<title>Amplitude</title>
    <g>
        <path d="M128,0 C198.682731,0 256,57.3172691 256,128 C256,198.682731 198.682731,256 128,256 C57.3172691,256 0,198.734137 0,128 C0,57.2658635 57.3172691,0 128,0 Z M111.08755,39.1196787 C95.3060241,39.1710843 81.015261,64.5654618 68.7293173,114.531727 C60.0417671,114.428916 52.0738956,114.274699 44.6200803,114.171888 L44.6200803,114.171888 L43.4891566,114.171888 C42.5638554,114.120482 41.6385542,114.171888 40.713253,114.274699 C36.497992,115.045783 33.4650602,118.746988 33.4650602,123.013655 C33.4650602,127.383133 36.7036145,131.135743 41.0216867,131.804016 L41.0216867,131.804016 L41.124498,131.906827 L64.7196787,131.906827 C62.5092369,141.879518 60.6072289,151.800803 59.0136546,161.310843 L59.0136546,161.310843 L58.2939759,165.474699 L58.2939759,165.680321 C58.2939759,167.685141 59.3220884,169.535743 61.0184739,170.615261 C63.7429719,172.363052 67.3927711,171.540562 69.1405622,168.816064 L69.1405622,168.816064 L69.2947791,168.970281 L80.8610442,131.906827 L136.584739,131.906827 C140.851406,148.048193 145.272289,164.652209 151.13253,180.279518 C154.268273,188.658635 161.567871,208.192771 173.80241,208.295582 L173.80241,208.295582 L173.956627,208.295582 C192.873896,208.295582 200.276305,177.709237 205.159839,157.455422 C206.239357,153.085944 207.113253,149.333333 207.987149,146.55743 L207.987149,146.55743 L208.346988,145.426506 L208.398639,145.260296 C208.799202,143.815444 207.983341,142.271724 206.547791,141.776707 C205.057028,141.262651 203.360643,142.033735 202.846586,143.575904 L202.846586,143.575904 L202.435341,144.706827 C200.841767,149.179116 199.351004,153.342972 198.014458,157.095582 L198.014458,157.095582 L197.911647,157.404016 C189.686747,180.587952 185.985542,191.17751 178.634538,191.17751 L178.634538,191.17751 L178.171888,191.17751 C168.764659,191.17751 159.974297,153.034538 156.632932,138.692369 C156.06747,136.2249 155.553414,133.911647 155.039357,131.906827 L155.039357,131.906827 L215.697992,131.906827 C216.77751,131.906827 217.857028,131.649799 218.833735,131.135743 L218.833735,131.135743 L218.881124,131.097189 C218.936546,131.058635 219.013655,131.02008 219.090763,130.981526 L219.090763,130.981526 L219.399197,130.775904 L219.553414,130.673092 C219.707631,130.570281 219.861847,130.46747 220.016064,130.313253 L220.016064,130.313253 L220.243135,130.124799 C221.357028,129.156426 222.146185,127.804016 222.483534,126.406426 C223.254618,122.756627 220.838554,119.158233 217.188755,118.438554 L217.188755,118.438554 L216.880321,118.438554 C216.520482,118.387149 216.212048,118.335743 215.852209,118.335743 L215.852209,118.335743 L214.926908,118.232932 C193.490763,116.690763 171.437751,116.073896 150.721285,115.662651 L150.721285,115.662651 L150.66988,115.508434 C140.645783,77.7253012 128.051406,39.1196787 111.08755,39.1196787 Z M110.419277,56.1349398 C111.293173,56.1349398 112.115663,56.648996 112.835341,57.5742972 C114.583133,60.3502008 117.66747,66.5702811 122.24257,80.346988 C125.378313,89.8056225 128.771084,101.57751 132.369478,115.251406 C118.695582,115.045783 104.918876,114.891566 91.5534137,114.737349 L91.5534137,114.737349 L84.7678715,114.685944 C92.4273092,84.7678715 101.731727,62.097992 108.568675,56.7518072 C109.134137,56.3919679 109.751004,56.1349398 110.419277,56.1349398 Z" fill="#10069F"></path>
    </g>
</svg>

<svg preserveAspectRatio="xMidYMid" viewBox="0 0 256 256" xmlns="http://www.w3.org/2000/svg">
  <path fill="#10069F" d="M128 0c70.683 0 128 57.317 128 128 0 70.683-57.317 128-128 128C57.317 256 0 198.734 0 128 0 57.266 57.317 0 128 0Zm-16.912 39.12c-15.782.051-30.073 25.445-42.359 75.412-8.687-.103-16.655-.257-24.109-.36h-1.13c-.926-.052-1.851 0-2.777.103-4.215.77-7.248 4.472-7.248 8.739 0 4.37 3.239 8.122 7.557 8.79l.102.103H64.72a577.93 577.93 0 0 0-5.706 29.404l-.72 4.164v.205a5.844 5.844 0 0 0 2.724 4.935c2.725 1.748 6.375.926 8.123-1.799l.154.154 11.566-37.063h55.724c4.266 16.141 8.687 32.745 14.548 48.373 3.135 8.379 10.435 27.913 22.67 28.016h.154c18.917 0 26.32-30.587 31.203-50.84 1.08-4.37 1.953-8.123 2.827-10.899l.36-1.13.052-.167c.4-1.445-.416-2.988-1.851-3.483-1.491-.514-3.187.257-3.701 1.799l-.412 1.13c-1.593 4.473-3.084 8.637-4.42 12.39l-.103.308c-8.225 23.184-11.926 33.774-19.277 33.774h-.463c-9.407 0-18.198-38.143-21.54-52.486-.565-2.467-1.079-4.78-1.593-6.785h60.659c1.08 0 2.159-.257 3.136-.771l.047-.039a1.82 1.82 0 0 1 .21-.115l.308-.206.154-.103c.155-.103.309-.206.463-.36l.227-.188c1.114-.969 1.903-2.321 2.24-3.719.772-3.65-1.644-7.248-5.294-7.967h-.309c-.36-.052-.668-.103-1.028-.103l-.925-.103c-21.436-1.542-43.49-2.16-64.206-2.57l-.051-.155c-10.024-37.783-22.62-76.388-39.582-76.388Zm-.669 17.015c.874 0 1.697.514 2.416 1.44 1.748 2.775 4.832 8.995 9.408 22.772 3.135 9.459 6.528 21.23 10.126 34.904-13.673-.205-27.45-.36-40.816-.514l-6.785-.051c7.66-29.918 16.964-52.588 23.8-57.934.566-.36 1.183-.617 1.851-.617Z"/>
</svg>
